public_html/assets/img/img-logo.svg

<svg width="76" height="65" viewBox="0 0 76 65" fill="none" xmlns="http://www.w3.org/2000/svg">
<path fill-rule="evenodd" clip-rule="evenodd" d="M37.7104 27.3981C58.5373 27.3981 75.4209 6.77398 75.4209 27.3981C75.4209 48.0222 58.5373 64.7413 37.7104 64.7413C16.8835 64.7413 0 48.0222 0 27.3981C0 6.77398 16.8835 27.3981 37.7104 27.3981Z" fill="#F45F5F"/>
<path d="M22.804 43.1828C22.804 41.9088 22.336 40.8948 21.387 40.1538C20.516 39.4648 19.437 39.1138 18.137 39.1138C16.408 39.1138 14.536 39.7378 12.534 40.9728L13.561 42.6368C15.238 41.5838 16.772 41.0638 18.137 41.0638C18.865 41.0638 19.476 41.2328 19.983 41.5578C20.568 41.9348 20.854 42.4808 20.854 43.1698C20.854 44.4178 20.035 45.5358 18.397 46.5238L19.424 48.1878C20.399 47.5898 21.192 46.8878 21.777 46.0948C22.466 45.1718 22.804 44.1968 22.804 43.1828ZM36.246 40.7518L33.464 38.8668L32.372 40.4788L35.154 42.3638L36.246 40.7518ZM32.385 43.7548C32.385 42.5328 32.047 41.5318 31.371 40.7388C30.682 39.9588 29.733 39.5168 28.524 39.4128V37.5278H26.574V39.5298C26.041 39.6338 25.508 39.7898 24.949 39.9978L25.612 41.8308C25.937 41.7138 26.249 41.6098 26.574 41.5318V46.4978H28.524V41.3758C29.811 41.5448 30.448 42.3378 30.448 43.7548C30.448 45.0808 29.902 46.4848 28.823 47.9668L30.396 49.1238C31.722 47.3168 32.385 45.5228 32.385 43.7548ZM47.27 40.7388V38.7888H45.151L44.852 37.1378L42.941 37.4888L43.175 38.7888H40.497V40.7388H43.526L43.851 42.5068C43.11 42.7798 42.512 43.2088 42.057 43.8068C41.576 44.4308 41.342 45.1328 41.342 45.8998C41.342 46.5758 41.55 47.2128 41.966 47.8108C42.343 48.3568 42.85 48.8118 43.487 49.1628L44.462 47.4728C43.695 47.0438 43.305 46.5108 43.305 45.8738C43.305 45.2108 43.63 44.7298 44.28 44.4568C44.631 44.3138 45.242 44.1838 46.126 44.0928L45.515 40.7388H47.27ZM61.557 48.0318L60.686 46.2768C60.049 46.6018 59.451 46.7708 58.892 46.7708C57.67 46.7708 56.708 46.0428 56.006 44.5868L54.563 45.2758L57.41 38.0088L55.59 37.2938L51.482 47.8238L53.302 48.5388L54.394 45.7178C54.888 46.6278 55.499 47.3428 56.227 47.8628C57.033 48.4348 57.917 48.7208 58.892 48.7208C59.75 48.7208 60.634 48.4868 61.557 48.0318Z" fill="#FCFCFC"/>
<path fill-rule="evenodd" clip-rule="evenodd" d="M11.354 12.139C13.2163 12.139 14.7259 10.6294 14.7259 8.76708C14.7259 6.90481 13.2163 5.39514 11.354 5.39514C9.49173 5.39514 7.98206 6.90481 7.98206 8.76708C7.98206 10.6294 9.49173 12.139 11.354 12.139Z" fill="#F45F5F"/>
<path fill-rule="evenodd" clip-rule="evenodd" d="M20.7953 6.74388C22.6576 6.74388 24.1672 5.23421 24.1672 3.37194C24.1672 1.50967 22.6576 0 20.7953 0C18.933 0 17.4233 1.50967 17.4233 3.37194C17.4233 5.23421 18.933 6.74388 20.7953 6.74388Z" fill="#F45F5F"/>
</svg>

<svg xmlns="http://www.w3.org/2000/svg" width="76" height="65" fill="none"><path fill="#F45F5F" fill-rule="evenodd" d="M37.71 27.398c20.827 0 37.71-20.624 37.71 0S58.538 64.741 37.71 64.741C16.884 64.741 0 48.022 0 27.398c0-20.624 16.884 0 37.71 0Z" clip-rule="evenodd"/><path fill="#FCFCFC" d="M22.804 43.183c0-1.274-.468-2.288-1.417-3.03-.871-.688-1.95-1.04-3.25-1.04-1.729 0-3.601.625-5.603 1.86l1.027 1.664c1.677-1.053 3.211-1.573 4.576-1.573.728 0 1.339.169 1.846.494.585.377.871.923.871 1.612 0 1.248-.819 2.366-2.457 3.354l1.027 1.664c.975-.598 1.768-1.3 2.353-2.093.689-.923 1.027-1.898 1.027-2.912Zm13.442-2.431-2.782-1.885-1.092 1.612 2.782 1.885 1.092-1.612Zm-3.861 3.003c0-1.222-.338-2.223-1.014-3.016-.689-.78-1.638-1.222-2.847-1.326v-1.885h-1.95v2.002a10.29 10.29 0 0 0-1.625.468l.663 1.833a9.09 9.09 0 0 1 .962-.3v4.967h1.95v-5.122c1.287.169 1.924.962 1.924 2.379 0 1.326-.546 2.73-1.625 4.212l1.573 1.157c1.326-1.807 1.989-3.601 1.989-5.37Zm14.885-3.016v-1.95h-2.119l-.299-1.651-1.911.35.234 1.3h-2.678v1.95h3.029l.325 1.769c-.741.273-1.339.702-1.794 1.3a3.346 3.346 0 0 0-.715 2.093c0 .676.208 1.313.624 1.91a4.392 4.392 0 0 0 1.521 1.353l.975-1.69c-.767-.43-1.157-.962-1.157-1.6 0-.662.325-1.143.975-1.416.351-.143.962-.273 1.846-.364l-.611-3.354h1.755Zm14.287 7.293-.871-1.755c-.637.325-1.235.494-1.794.494-1.222 0-2.184-.728-2.886-2.184l-1.443.689 2.847-7.267-1.82-.715-4.108 10.53 1.82.715 1.092-2.821c.494.91 1.105 1.625 1.833 2.145.806.572 1.69.858 2.665.858.858 0 1.742-.234 2.665-.69Z"/><path fill="#F45F5F" fill-rule="evenodd" d="M11.354 12.139a3.372 3.372 0 1 0 0-6.744 3.372 3.372 0 0 0 0 6.744Zm9.441-5.395a3.372 3.372 0 1 0 0-6.744 3.372 3.372 0 0 0 0 6.744Z" clip-rule="evenodd"/></svg>
